public/faq.svg

<svg width="110" height="100" viewBox="0 0 110 100" fill="none" xmlns="http://www.w3.org/2000/svg">
<g clip-path="url(#clip0_191_264)">
<path d="M78.3906 59.9687C94.6226 59.9687 107.781 46.8101 107.781 30.5781C107.781 14.3461 94.6226 1.1875 78.3906 1.1875C62.1586 1.1875 49 14.3461 49 30.5781C49 46.8101 62.1586 59.9687 78.3906 59.9687Z" fill="#8FDCF1"/>
<path d="M32.9219 92.0313C40.6107 92.0313 46.8438 85.7982 46.8438 78.1094C46.8438 70.4205 40.6107 64.1875 32.9219 64.1875C25.233 64.1875 19 70.4205 19 78.1094C19 85.7982 25.233 92.0313 32.9219 92.0313Z" fill="#6F99A3"/>
<path d="M77.5156 71.3437C77.5156 71.3437 80.6094 69.7969 83.7031 68.25C84.424 67.8911 85.25 66.7031 85.25 65.1563C85.25 64.3828 85.25 63.6094 85.25 63.6094" stroke="#1C1D20" stroke-width="2" stroke-miterlimit="10"/>
<path d="M94.5312 63.6094C94.5312 63.6094 94.5312 64.3828 94.5312 65.1563C94.5312 66.7031 95.3573 67.8911 96.0781 68.25C102.266 71.3437 105.033 72.7282 105.033 72.7282C106.028 73.2248 106.902 73.9935 107.528 75.0098C108.158 76.023 108.453 77.1492 108.453 78.2614V82.1719L107.336 82.7288C104.716 84.0405 101.905 85.0754 98.9259 85.7776C95.9497 86.4815 92.822 86.8125 89.8906 86.8125" stroke="#1C1D20" stroke-width="2" stroke-miterlimit="10"/>
<path d="M84.4225 47.313C85.9307 45.8018 87.9123 45.0469 89.8907 45.0469C91.8692 45.0469 93.8507 45.8018 95.3589 47.313C96.8702 48.8228 97.6251 50.8028 97.6251 52.7813L97.622 55.875C97.622 60.0144 95.0465 65.1563 89.8907 65.1563C84.7365 65.1563 82.1594 60.0144 82.1594 55.875L82.1562 52.7813C82.1562 50.8028 82.9112 48.8228 84.4225 47.313Z" stroke="#1C1D20" stroke-width="2" stroke-miterlimit="10"/>
<path d="M52.7656 57.4219V63.6094C52.7656 65.1563 51.9922 66.3164 51.2188 66.7031C48.125 68.25 45.0312 69.7969 41.9375 71.3437C35.1189 74.7531 29.5625 77.5313 29.5625 85.2656V99.1875" stroke="#1C1D20" stroke-width="2" stroke-miterlimit="10"/>
<path d="M91.4375 99.1875V85.2656C91.4375 77.5313 85.8811 74.7531 79.0625 71.3437C75.9688 69.7969 72.875 68.25 69.7812 66.7031C69.0078 66.3164 68.2344 65.1563 68.2344 63.6094V57.4219" stroke="#1C1D20" stroke-width="2" stroke-miterlimit="10"/>
<path d="M69.7811 66.7031C69.7811 71.8295 65.6248 75.9844 60.5 75.9844C55.3752 75.9844 51.2188 71.8295 51.2188 66.7031" stroke="#1C1D20" stroke-width="2" stroke-miterlimit="10" stroke-linejoin="round"/>
<path d="M43 99.1875V95.1875" stroke="#1C1D20" stroke-width="2" stroke-miterlimit="10"/>
<path d="M79 99.1875V95.1875" stroke="#1C1D20" stroke-width="2" stroke-miterlimit="10"/>
<path d="M74.4219 41.9531C74.4219 40.7651 73.9686 39.5787 73.0622 38.6722C72.1557 37.7657 70.9693 37.3125 69.7812 37.3125H68.2344C67.4424 37.3125 66.6519 37.0109 66.0471 36.406C65.4423 35.8012 65.1406 35.0109 65.1406 34.2188L62.0469 37.3125H51.2188C50.0307 37.3125 48.8443 37.7657 47.9378 38.6722C47.0314 39.5787 46.5781 40.7651 46.5781 41.9531" stroke="#1C1D20" stroke-width="2" stroke-miterlimit="10" stroke-linejoin="round"/>
<path d="M46.5781 37.3125C46.5781 33.75 47.9378 30.1876 50.6557 27.4697C53.3751 24.7503 56.936 23.3906 60.5 23.3906C64.064 23.3906 67.6249 24.7503 70.3443 27.4697C73.0622 30.1876 74.4219 33.75 74.4219 37.3125V45.0469C74.4219 45.4429 74.2703 45.8389 73.9686 46.1405C73.667 46.4422 73.271 46.5937 72.875 46.5937C72.875 52.9591 68.7495 60.5156 60.5 60.5156C52.249 60.5156 48.125 52.9591 48.125 46.5937C47.729 46.5937 47.333 46.4422 47.0314 46.1405C46.7297 45.8389 46.5781 45.4429 46.5781 45.0469V37.3125Z" stroke="#1C1D20" stroke-width="2" stroke-miterlimit="10" stroke-linejoin="round"/>
<path d="M82.1562 28.4844H85.2501" stroke="#1C1D20" stroke-width="2" stroke-miterlimit="10"/>
<path d="M88.3438 28.4844H91.4374" stroke="#1C1D20" stroke-width="2" stroke-miterlimit="10"/>
<path d="M94.5312 28.4844H97.6251" stroke="#1C1D20" stroke-width="2" stroke-miterlimit="10"/>
<path d="M71 23.7875V18.1875H108V37.7875H103.867V39.0959" stroke="#1C1D20" stroke-width="2" stroke-miterlimit="10"/>
<path d="M79.0625 37.3125H97.625L103.812 43.5V38.8594" stroke="#1C1D20" stroke-width="2" stroke-miterlimit="10" stroke-linejoin="round"/>
<path d="M16 27.1875H47" stroke="#1C1D20" stroke-width="2" stroke-miterlimit="10"/>
<path d="M16 34.1875H38" stroke="#1C1D20" stroke-width="2" stroke-miterlimit="10"/>
<path d="M13.6 50.1875V48.5208H9V15.1875H55V20.1875" stroke="#1C1D20" stroke-width="2" stroke-miterlimit="10"/>
<path d="M13.5 49.1875V55.1875L20 48.1875H42" stroke="#1C1D20" stroke-width="2" stroke-miterlimit="10" stroke-linejoin="round"/>
</g>
<defs>
<clipPath id="clip0_191_264">
<rect width="110" height="99" fill="white" transform="translate(0 0.1875)"/>
</clipPath>
</defs>
</svg>

<svg xmlns="http://www.w3.org/2000/svg" width="110" height="100" fill="none"><g clip-path="url(#a)"><path fill="#8FDCF1" d="M78.39 59.969c16.233 0 29.391-13.159 29.391-29.39 0-16.233-13.158-29.392-29.39-29.392S49 14.348 49 30.578c0 16.232 13.159 29.39 29.39 29.39Z"/><path fill="#6F99A3" d="M32.922 92.031c7.689 0 13.922-6.233 13.922-13.922 0-7.688-6.233-13.921-13.922-13.921C25.233 64.188 19 70.42 19 78.108c0 7.69 6.233 13.922 13.922 13.922Z"/><path stroke="#1C1D20" stroke-miterlimit="10" stroke-width="2" d="m77.516 71.344 6.187-3.094c.721-.359 1.547-1.547 1.547-3.094V63.61M94.531 63.61v1.546c0 1.547.826 2.735 1.547 3.094l8.955 4.478a6.14 6.14 0 0 1 2.495 2.282c.63 1.013.925 2.14.925 3.251v3.91l-1.117.558a38.485 38.485 0 0 1-8.41 3.049c-2.976.703-6.104 1.034-9.035 1.034"/><path stroke="#1C1D20" stroke-miterlimit="10" stroke-width="2" d="M84.422 47.313a7.703 7.703 0 0 1 5.469-2.266c1.978 0 3.96.755 5.468 2.266a7.706 7.706 0 0 1 2.266 5.468l-.003 3.094c0 4.14-2.576 9.281-7.731 9.281-5.154 0-7.732-5.142-7.732-9.281l-.003-3.094c0-1.978.755-3.958 2.266-5.468ZM52.766 57.422v6.187c0 1.547-.774 2.707-1.547 3.094l-9.282 4.64c-6.818 3.41-12.374 6.188-12.374 13.923v13.921M91.438 99.188V85.266c0-7.735-5.557-10.513-12.376-13.922l-9.28-4.64c-.774-.388-1.548-1.548-1.548-3.095v-6.187"/><path stroke="#1C1D20" stroke-linejoin="round" stroke-miterlimit="10" stroke-width="2" d="M69.781 66.703a9.282 9.282 0 0 1-18.562 0"/><path stroke="#1C1D20" stroke-miterlimit="10" stroke-width="2" d="M43 99.188v-4M79 99.188v-4"/><path stroke="#1C1D20" stroke-linejoin="round" stroke-miterlimit="10" stroke-width="2" d="M74.422 41.953a4.624 4.624 0 0 0-1.36-3.28 4.624 4.624 0 0 0-3.28-1.36h-1.548a3.081 3.081 0 0 1-2.187-.907 3.081 3.081 0 0 1-.906-2.187l-3.094 3.093H51.219a4.624 4.624 0 0 0-3.281 1.36 4.624 4.624 0 0 0-1.36 3.281"/><path stroke="#1C1D20" stroke-linejoin="round" stroke-miterlimit="10" stroke-width="2" d="M46.578 37.313c0-3.563 1.36-7.125 4.078-9.843 2.72-2.72 6.28-4.08 9.844-4.08 3.564 0 7.125 1.36 9.844 4.08a13.877 13.877 0 0 1 4.078 9.843v7.734c0 .396-.152.792-.453 1.094a1.542 1.542 0 0 1-1.094.453c0 6.365-4.126 13.922-12.375 13.922-8.251 0-12.375-7.557-12.375-13.922-.396 0-.792-.152-1.094-.453a1.542 1.542 0 0 1-.453-1.094v-7.734Z"/><path stroke="#1C1D20" stroke-miterlimit="10" stroke-width="2" d="M82.156 28.484h3.094M88.344 28.484h3.093M94.531 28.484h3.094M71 23.788v-5.6h37v19.6h-4.133v1.308"/><path stroke="#1C1D20" stroke-linejoin="round" stroke-miterlimit="10" stroke-width="2" d="M79.063 37.313h18.562l6.187 6.187v-4.64"/><path stroke="#1C1D20" stroke-miterlimit="10" stroke-width="2" d="M16 27.188h31M16 34.188h22M13.6 50.188V48.52H9V15.187h46v5"/><path stroke="#1C1D20" stroke-linejoin="round" stroke-miterlimit="10" stroke-width="2" d="M13.5 49.188v6l6.5-7h22"/></g><defs><clipPath id="a"><path fill="#fff" d="M0 .188h110v99H0z"/></clipPath></defs></svg>
